X: 1
T:City of Savannah
T:% Nottingham Music Database
M:4/4
L:1/8
C:Traditional
S:From Matt Molloy
R:Hornpipe
N:Played first in set with "Drowsie Maggie
Z:deLombard
K:D
FG|:(3"D"ABA FA dfaf|"G"gaba gfed|"Em"cded cdBc|"A7"ABGA FFG^G|!
(3"D"ABA FA dfaf|"G"gaba gfed|"A7"cdBc ABGA|FGEc "D"d2:|!
|:(3"A"efe ce aec'e|"E7"be^ge "A"aebe|(3"A"efe ce aec'e|"E7"be^ge "A"a4|
